Numix-Circle/48x48/apps/parano.svg

<?xml version="1.0" encoding="UTF-8" standalone="no"?>
<svg
   xmlns:dc="http://purl.org/dc/elements/1.1/"
   xmlns:cc="http://creativecommons.org/ns#"
   xmlns:rdf="http://www.w3.org/1999/02/22-rdf-syntax-ns#"
   xmlns:svg="http://www.w3.org/2000/svg"
   xmlns="http://www.w3.org/2000/svg"
   xmlns:xlink="http://www.w3.org/1999/xlink"
   xmlns:sodipodi="http://sodipodi.sourceforge.net/DTD/sodipodi-0.dtd"
   xmlns:inkscape="http://www.inkscape.org/namespaces/inkscape"
   width="48"
   viewBox="0 0 13.546667 13.546667"
   height="48"
   id="svg2"
   version="1.1"
   inkscape:version="0.48.5 r10040"
   sodipodi:docname="parano.svg">
  <metadata
     id="metadata331">
    <rdf:RDF>
      <cc:Work
         rdf:about="">
        <dc:format>image/svg+xml</dc:format>
        <dc:type
           rdf:resource="http://purl.org/dc/dcmitype/StillImage" />
        <dc:title />
      </cc:Work>
    </rdf:RDF>
  </metadata>
  <sodipodi:namedview
     pagecolor="#ffffff"
     bordercolor="#666666"
     borderopacity="1"
     objecttolerance="10"
     gridtolerance="10"
     guidetolerance="10"
     inkscape:pageopacity="0"
     inkscape:pageshadow="2"
     inkscape:window-width="1280"
     inkscape:window-height="998"
     id="namedview329"
     showgrid="true"
     inkscape:zoom="5.8672185"
     inkscape:cx="-3.6778883"
     inkscape:cy="23.196427"
     inkscape:window-x="0"
     inkscape:window-y="0"
     inkscape:window-maximized="1"
     inkscape:current-layer="layer3">
    <inkscape:grid
       type="xygrid"
       id="grid3308" />
  </sodipodi:namedview>
  <defs
     id="defs4">
    <linearGradient
       id="linearGradient3786">
      <stop
         style="stop-color:#ce6b20;stop-opacity:1;"
         offset="0"
         id="stop3788" />
      <stop
         style="stop-color:#dd7425;stop-opacity:1;"
         offset="1"
         id="stop3790" />
    </linearGradient>
    <linearGradient
       id="linearGradient4226">
      <stop
         id="stop3264"
         style="stop-color:#ee9231;stop-opacity:1;"
         offset="0" />
      <stop
         id="stop3266"
         style="stop-color:#ed9d49;stop-opacity:1;"
         offset="1" />
    </linearGradient>
    <linearGradient
       inkscape:collect="always"
       xlink:href="#linearGradient3786"
       id="linearGradient3792"
       x1="-27"
       y1="13"
       x2="-24"
       y2="13"
       gradientUnits="userSpaceOnUse" />
  </defs>
  <g
     inkscape:groupmode="layer"
     id="layer1"
     inkscape:label="Shadow"
     sodipodi:insensitive="true">
    <path
       style="opacity:0.05;fill:#000000;fill-opacity:1;stroke:none"
       d="M 25,2 C 12.297451,2 2,12.297451 2,25 2,31.367153 4.6007106,37.116628 8.78125,41.28125 12.865755,44.99361 18.29568,47.25 24.25,47.25 c 12.702549,0 23,-10.297451 23,-23 0,-5.95432 -2.25639,-11.384245 -5.96875,-15.46875 C 37.116628,4.6007105 31.367153,2 25,2 z M 41.28125,8.78125 C 45.135604,12.894061 47.5,18.418655 47.5,24.5 c 0,12.702549 -10.297451,23 -23,23 C 18.418655,47.5 12.894061,45.135604 8.78125,41.28125 12.940939,45.4251 18.664604,48 25,48 37.702549,48 48,37.702549 48,25 48,18.664604 45.4251,12.940939 41.28125,8.78125 z"
       transform="scale(0.28222223,0.28222223)"
       id="path3978"
       inkscape:connector-curvature="0" />
    <path
       style="opacity:0.1;fill:#000000;fill-opacity:1;stroke:none"
       d="M 41.28125,8.78125 C 44.99361,12.865755 47.25,18.29568 47.25,24.25 c 0,12.702549 -10.297451,23 -23,23 -5.95432,0 -11.384245,-2.25639 -15.46875,-5.96875 C 12.894061,45.135604 18.418655,47.5 24.5,47.5 c 12.702549,0 23,-10.297451 23,-23 0,-6.081345 -2.364396,-11.605939 -6.21875,-15.71875 z"
       transform="scale(0.28222223,0.28222223)"
       id="path3976"
       inkscape:connector-curvature="0" />
    <path
       transform="matrix(4.3274074,0,0,3.2455556,117.19278,-35.348334)"
       d="m -24,13 a 1.5,2 0 1 1 -3,0 1.5,2 0 1 1 3,0 z"
       sodipodi:ry="2"
       sodipodi:rx="1.5"
       sodipodi:cy="13"
       sodipodi:cx="-25.5"
       id="path3952"
       style="opacity:0.2;fill:#000000;fill-opacity:1;stroke:none"
       sodipodi:type="arc" />
  </g>
  <g
     inkscape:groupmode="layer"
     id="layer2"
     inkscape:label="Base">
    <path
       sodipodi:type="arc"
       style="fill:url(#linearGradient3792);fill-opacity:1;stroke:none"
       id="path3942"
       sodipodi:cx="-25.5"
       sodipodi:cy="13"
       sodipodi:rx="1.5"
       sodipodi:ry="2"
       d="m -24,13 a 1.5,2 0 1 1 -3,0 1.5,2 0 1 1 3,0 z"
       transform="matrix(0,-4.3274075,3.2455556,0,-35.418894,-103.57556)" />
    <path
       style="opacity:0.1;fill:#000000;fill-opacity:1;stroke:none"
       d="M 40.03125 7.53125 C 43.74361 11.615755 46 17.04568 46 23 C 46 35.702549 35.702549 46 23 46 C 17.04568 46 11.615755 43.74361 7.53125 40.03125 C 11.709416 44.322508 17.537578 47 24 47 C 36.702549 47 47 36.702549 47 24 C 47 17.537578 44.322508 11.709416 40.03125 7.53125 z "
       id="path4027"
       transform="scale(0.28222223,0.28222223)" />
  </g>
  <g
     inkscape:groupmode="layer"
     id="layer3"
     inkscape:label="Symbol">
    <path
       style="opacity:0.1;fill:#000000;fill-opacity:1;fill-rule:nonzero;stroke:none"
       d="m 4.4802779,3.3866662 c -0.1388533,0 -0.2469444,0.1080911 -0.2469444,0.2469445 l 0,6.8438893 c 0,0.138853 0.1080911,0.246945 0.2469444,0.246945 l 5.1505557,0 c 0.1388532,0 0.2469442,-0.108092 0.2469442,-0.246945 l 0,-3.704167 0,-1.6933334 -1.6933331,-1.6933334 -2.2577779,0 -0.5644444,0 -0.8819445,0 z"
       id="path4332"
       inkscape:connector-curvature="0" />
    <path
       id="path67"
       d="m 4.1980557,3.1044445 c -0.1388533,0 -0.2469445,0.1080911 -0.2469445,0.2469445 l 0,6.843889 c 0,0.138853 0.1080912,0.246945 0.2469445,0.246945 l 5.1505557,0 c 0.1388533,0 0.2469445,-0.108092 0.2469445,-0.246945 l -1e-7,-5.3975001 -1.6933334,-1.6933334"
       inkscape:connector-curvature="0"
       style="fill:#e8e8d9;fill-opacity:1;fill-rule:nonzero;stroke:none"
       sodipodi:nodetypes="cssssscc" />
    <path
       id="path79"
       d="m 7.9022224,3.1044445 0,1.6933334 1.6933334,0"
       inkscape:connector-curvature="0"
       style="fill:#ffffff;fill-opacity:1;fill-rule:nonzero;stroke:none"
       sodipodi:nodetypes="ccc" />
    <path
       id="SVGCleanerId_0"
       d="m 9.5955558,6.4911113 0,-1.6933334 -1.6933334,0"
       inkscape:connector-curvature="0"
       style="fill:#000000;fill-opacity:0.2;fill-rule:nonzero;stroke:none"
       sodipodi:nodetypes="ccc" />
    <path
       id="path3002"
       d="m 7.1045871,6.0249421 c -0.1297631,0 -0.2392791,0.072545 -0.2891239,0.1756999 C 6.7166785,6.1343513 6.578944,6.1219426 6.46652,6.182147 6.3550106,6.2418618 6.2957385,6.3572122 6.3070027,6.4688151 6.1866815,6.4583665 6.062319,6.5133441 5.997939,6.6167728 5.9330306,6.7210503 5.9464082,6.848804 6.0178799,6.9404302 5.9066655,6.9866632 5.8284535,7.0882433 5.8284535,7.2086036 c 0,0.1203601 0.078212,0.2219402 0.1894264,0.2681734 -0.07147,0.091626 -0.084848,0.2193799 -0.019941,0.3236575 0.064379,0.1034286 0.1887419,0.1584055 0.3090637,0.1479578 -0.011265,0.1116025 0.04801,0.2269533 0.1595168,0.2866678 0.049988,0.026768 0.1051728,0.037284 0.1595167,0.036989 l 0,1.2622645 0.4785509,-0.4438732 0.4785509,0.4438732 0,-1.2622645 C 7.6374839,8.2723525 7.692669,8.2618291 7.742654,8.2350601 7.8541636,8.1753456 7.9134356,8.0599948 7.9021714,7.9483921 8.0224926,7.9588407 8.1468551,7.9038631 8.2112351,7.8004345 8.2761435,7.6961569 8.262766,7.5684032 8.1912942,7.476777 8.3025087,7.430544 8.3807206,7.3289637 8.3807206,7.2086036 c 0,-0.1203603 -0.078212,-0.2219401 -0.1894264,-0.2681734 0.07147,-0.091626 0.084848,-0.2193799 0.019941,-0.3236574 C 8.1468557,6.5133442 8.0224938,6.4583672 7.902172,6.4688153 7.9134339,6.3572126 7.8541641,6.241862 7.7426552,6.1821472 7.6302308,6.1219426 7.4924964,6.1343514 7.3937116,6.200642 7.3438668,6.0974869 7.2343508,6.0249421 7.1045871,6.0249421 z m 0,0.4392494 c 0.4404942,0 0.7975849,0.3312145 0.7975849,0.7397887 0,0.4085738 -0.3570912,0.7397885 -0.7975849,0.7397885 -0.4404931,1e-7 -0.7975844,-0.3312145 -0.7975844,-0.7397884 0,-0.4085741 0.3570908,-0.7397888 0.7975844,-0.7397888 z m 0,0.147958 c -0.3523949,0 -0.6380676,0.2649718 -0.6380671,0.5918308 0,0.3268589 0.2856728,0.5918307 0.6380671,0.5918307 0.3523949,0 0.6380676,-0.2649718 0.6380676,-0.5918307 0,-0.326859 -0.2856727,-0.5918308 -0.6380676,-0.5918308 z"
       style="fill:#000000;fill-opacity:1;opacity:0.1"
       inkscape:connector-curvature="0" />
    <path
       inkscape:connector-curvature="0"
       style="fill:#a02c2c;fill-opacity:1"
       d="m 6.8224153,5.7427198 c -0.1297631,0 -0.2392791,0.072545 -0.2891239,0.1756999 C 6.4345067,5.852129 6.2967722,5.8397203 6.1843482,5.8999247 6.0728388,5.9596395 6.0135667,6.0749899 6.0248309,6.1865928 5.9045097,6.1761442 5.7801472,6.2311218 5.7157672,6.3345505 5.6508588,6.438828 5.6642364,6.5665817 5.7357081,6.6582079 5.6244937,6.7044409 5.5462817,6.806021 5.5462817,6.9263813 c 0,0.1203601 0.078212,0.2219402 0.1894264,0.2681734 -0.07147,0.091626 -0.084848,0.2193799 -0.019941,0.3236575 0.064379,0.1034286 0.1887419,0.1584055 0.3090637,0.1479578 -0.011265,0.1116025 0.04801,0.2269533 0.1595168,0.2866678 0.049988,0.026768 0.1051728,0.037284 0.1595167,0.036989 l 0,1.2622645 0.4785509,-0.4438732 0.4785509,0.4438732 0,-1.2622645 c 0.054346,3.034e-4 0.1095311,-0.01022 0.1595161,-0.036989 C 7.5719918,7.8931233 7.6312638,7.7777725 7.6199996,7.6661698 7.7403208,7.6766184 7.8646833,7.6216408 7.9290633,7.5182122 7.9939717,7.4139346 7.9805942,7.2861809 7.9091224,7.1945547 8.0203369,7.1483217 8.0985488,7.0467414 8.0985488,6.9263813 8.0985488,6.806021 8.0203368,6.7044412 7.9091224,6.6582079 7.9805924,6.5665819 7.9939704,6.438828 7.9290634,6.3345505 7.8646839,6.2311219 7.740322,6.1761449 7.6200002,6.186593 7.6312621,6.0749903 7.5719923,5.9596397 7.4604834,5.8999249 7.348059,5.8397203 7.2103246,5.8521291 7.1115398,5.9184197 7.061695,5.8152646 6.952179,5.7427198 6.8224153,5.7427198 z m 0,0.4392494 c 0.4404942,0 0.7975849,0.3312145 0.7975849,0.7397887 0,0.4085738 -0.3570912,0.7397885 -0.7975849,0.7397885 -0.4404931,1e-7 -0.7975844,-0.3312145 -0.7975844,-0.7397884 0,-0.4085741 0.3570908,-0.7397888 0.7975844,-0.7397888 z m 0,0.147958 c -0.3523949,0 -0.6380676,0.2649718 -0.6380671,0.5918308 0,0.3268589 0.2856728,0.5918307 0.6380671,0.5918307 0.3523949,0 0.6380676,-0.2649718 0.6380676,-0.5918307 0,-0.326859 -0.2856727,-0.5918308 -0.6380676,-0.5918308 z"
       id="path10" />
  </g>
</svg>

<svg xmlns="http://www.w3.org/2000/svg" width="48" viewBox="0 0 13.546667 13.546667" height="48">
 <defs>
  <linearGradient id="linearGradient3792" x1="-27" x2="-24" gradientUnits="userSpaceOnUse">
   <stop style="stop-color:#ce6b20;stop-opacity:1"/>
   <stop offset="1" style="stop-color:#dd7425;stop-opacity:1"/>
  </linearGradient>
 </defs>
 <g>
  <path d="m 25 2 c -12.703 0 -23 10.297 -23 23 0 6.367 2.601 12.12 6.781 16.281 4.085 3.712 9.514 5.969 15.469 5.969 c 12.703 0 23 -10.297 23 -23 0 -5.954 -2.256 -11.384 -5.969 -15.469 c -4.165 -4.181 -9.914 -6.781 -16.281 -6.781 z m 16.281 6.781 c 3.854 4.113 6.219 9.637 6.219 15.719 c 0 12.703 -10.297 23 -23 23 c -6.081 0 -11.606 -2.364 -15.719 -6.219 4.16 4.144 9.883 6.719 16.219 6.719 12.703 0 23 -10.297 23 -23 0 -6.335 -2.575 -12.06 -6.719 -16.219 z" transform="scale(0.28222223,0.28222223)" style="fill:#000;opacity:0.05;fill-opacity:1;stroke:none"/>
  <path d="m 41.28 8.781 c 3.712 4.085 5.969 9.514 5.969 15.469 c 0 12.703 -10.297 23 -23 23 -5.954 0 -11.384 -2.256 -15.469 -5.969 c 4.113 3.854 9.637 6.219 15.719 6.219 c 12.703 0 23 -10.297 23 -23 0 -6.081 -2.364 -11.606 -6.219 -15.719 z" transform="scale(0.28222223,0.28222223)" style="fill:#000;opacity:0.1;fill-opacity:1;stroke:none"/>
  <path transform="matrix(4.3274074,0,0,3.2455556,117.19278,-35.348334)" d="m -24 13 a 1.5 2 0 1 1 -3 0 1.5 2 0 1 1 3 0 z" style="fill:#000;opacity:0.2;fill-opacity:1;stroke:none"/>
 </g>
 <g>
  <path d="m -24 13 a 1.5 2 0 1 1 -3 0 1.5 2 0 1 1 3 0 z" transform="matrix(0,-4.3274075,3.2455556,0,-35.418894,-103.57556)" style="fill:url(#linearGradient3792);fill-opacity:1;stroke:none"/>
  <path d="m 40.03 7.531 c 3.712 4.085 5.969 9.514 5.969 15.469 c 0 12.703 -10.297 23 -23 23 c -5.954 0 -11.384 -2.256 -15.469 -5.969 c 4.178 4.291 10.01 6.969 16.469 6.969 c 12.703 0 23 -10.297 23 -23 c 0 -6.462 -2.677 -12.291 -6.969 -16.469 z" transform="scale(0.28222223,0.28222223)" style="fill:#000;opacity:0.1;fill-opacity:1;stroke:none"/>
 </g>
 <g>
  <path d="m 4.48 3.387 c -0.139 0 -0.247 0.108 -0.247 0.247 l 0 6.844 c 0 0.139 0.108 0.247 0.247 0.247 l 5.151 0 c 0.139 0 0.247 -0.108 0.247 -0.247 l 0 -3.704 0 -1.693 -1.693 -1.693 -2.258 0 -0.564 0 -0.882 0 z" style="fill:#000;opacity:0.1;fill-opacity:1;stroke:none;fill-rule:nonzero"/>
  <path d="m 4.198 3.104 c -0.139 0 -0.247 0.108 -0.247 0.247 l 0 6.844 c 0 0.139 0.108 0.247 0.247 0.247 l 5.151 0 c 0.139 0 0.247 -0.108 0.247 -0.247 l 0 -5.398 -1.693 -1.693" style="fill:#e8e8d9;fill-opacity:1;stroke:none;fill-rule:nonzero"/>
  <path d="m 7.902 3.104 0 1.693 1.693 0" style="fill:#fff;fill-opacity:1;stroke:none;fill-rule:nonzero"/>
  <path d="m 9.596 6.491 0 -1.693 -1.693 0" style="fill:#000;fill-opacity:0.2;stroke:none;fill-rule:nonzero"/>
  <path d="m 7.105 6.02 c -0.13 0 -0.239 0.073 -0.289 0.176 c -0.099 -0.066 -0.237 -0.079 -0.349 -0.018 -0.112 0.06 -0.171 0.175 -0.16 0.287 -0.12 -0.001 -0.245 0.045 -0.309 0.148 -0.065 0.104 -0.052 0.232 0.02 0.324 -0.111 0.046 -0.189 0.148 -0.189 0.268 c 0 0.12 0.078 0.222 0.189 0.268 -0.071 0.092 -0.085 0.219 -0.02 0.324 0.064 0.103 0.189 0.158 0.309 0.148 -0.011 0.112 0.048 0.227 0.16 0.287 0.05 0.027 0.105 0.037 0.16 0.037 l 0 1.262 0.479 -0.444 0.479 0.444 0 -1.262 c 0.054 0 0.11 -0.001 0.16 -0.037 0.112 -0.06 0.171 -0.175 0.16 -0.287 0.12 0.001 0.245 -0.045 0.309 -0.148 0.065 -0.104 0.052 -0.232 -0.02 -0.324 0.111 -0.046 0.189 -0.148 0.189 -0.268 c 0 -0.12 -0.078 -0.222 -0.189 -0.268 0.071 -0.092 0.085 -0.219 0.02 -0.324 c -0.064 -0.103 -0.189 -0.158 -0.309 -0.148 0.011 -0.112 -0.048 -0.227 -0.16 -0.287 -0.112 -0.06 -0.25 -0.048 -0.349 0.018 -0.05 -0.103 -0.159 -0.176 -0.289 -0.176 z m 0 0.439 c 0.44 0 0.798 0.331 0.798 0.74 0 0.409 -0.357 0.74 -0.798 0.74 -0.44 0 -0.798 -0.331 -0.798 -0.74 0 -0.409 0.357 -0.74 0.798 -0.74 z m 0 0.148 c -0.352 0 -0.638 0.265 -0.638 0.592 0 0.327 0.286 0.592 0.638 0.592 0.352 0 0.638 -0.265 0.638 -0.592 0 -0.327 -0.286 -0.592 -0.638 -0.592 z" style="fill:#000;opacity:0.1;fill-opacity:1"/>
  <path d="m 6.822 5.743 c -0.13 0 -0.239 0.073 -0.289 0.176 c -0.099 -0.066 -0.237 -0.079 -0.349 -0.018 -0.112 0.06 -0.171 0.175 -0.16 0.287 -0.12 -0.001 -0.245 0.045 -0.309 0.148 -0.065 0.104 -0.052 0.232 0.02 0.324 -0.111 0.046 -0.189 0.148 -0.189 0.268 c 0 0.12 0.078 0.222 0.189 0.268 -0.071 0.092 -0.085 0.219 -0.02 0.324 0.064 0.103 0.189 0.158 0.309 0.148 -0.011 0.112 0.048 0.227 0.16 0.287 0.05 0.027 0.105 0.037 0.16 0.037 l 0 1.262 0.479 -0.444 0.479 0.444 0 -1.262 c 0.054 0 0.11 -0.001 0.16 -0.037 c 0.112 -0.06 0.171 -0.175 0.16 -0.287 0.12 0.001 0.245 -0.045 0.309 -0.148 0.065 -0.104 0.052 -0.232 -0.02 -0.324 0.111 -0.046 0.189 -0.148 0.189 -0.268 0 -0.12 -0.078 -0.222 -0.189 -0.268 0.071 -0.092 0.085 -0.219 0.02 -0.324 -0.064 -0.103 -0.189 -0.158 -0.309 -0.148 0.011 -0.112 -0.048 -0.227 -0.16 -0.287 -0.112 -0.06 -0.25 -0.048 -0.349 0.018 -0.05 -0.103 -0.159 -0.176 -0.289 -0.176 z m 0 0.439 c 0.44 0 0.798 0.331 0.798 0.74 0 0.409 -0.357 0.74 -0.798 0.74 -0.44 0 -0.798 -0.331 -0.798 -0.74 0 -0.409 0.357 -0.74 0.798 -0.74 z m 0 0.148 c -0.352 0 -0.638 0.265 -0.638 0.592 0 0.327 0.286 0.592 0.638 0.592 0.352 0 0.638 -0.265 0.638 -0.592 0 -0.327 -0.286 -0.592 -0.638 -0.592 z" style="fill:#a02c2c;fill-opacity:1"/>
 </g>
</svg>
